icons/gear-outline.svg

<svg width="24" height="24" viewBox="0 0 24 24" fill="none" xmlns="http://www.w3.org/2000/svg">
<path fill-rule="evenodd" clip-rule="evenodd" d="M6.37 18.644C5.91362 18.8943 5.37766 18.9568 4.87593 18.8182C4.37421 18.6797 3.94627 18.351 3.683 17.902L2.658 16.154C2.52515 15.9274 2.43824 15.6769 2.40222 15.4167C2.36621 15.1565 2.3818 14.8918 2.4481 14.6376C2.5144 14.3835 2.63012 14.1448 2.78864 13.9354C2.94717 13.726 3.14539 13.5498 3.372 13.417L3.395 13.403L4.072 13.019C3.97687 12.344 3.97115 11.6595 4.055 10.983L3.385 10.599C3.15715 10.4683 2.95727 10.2941 2.79677 10.0862C2.63627 9.87826 2.51829 9.64077 2.44957 9.38727C2.38086 9.13376 2.36275 8.8692 2.39628 8.6087C2.42981 8.34819 2.51433 8.09684 2.645 7.869L2.654 7.855L3.676 6.107C3.94146 5.65312 4.37498 5.32204 4.88274 5.18541C5.39049 5.04879 5.93162 5.11762 6.389 5.377L7.036 5.743C7.63345 5.24452 8.30657 4.8445 9.03 4.558L9.025 4.023C9.02196 3.76035 9.07069 3.49968 9.1684 3.25586C9.26611 3.01205 9.4109 2.78987 9.59448 2.60201C9.77807 2.41416 9.99686 2.2643 10.2384 2.16101C10.4799 2.05771 10.7394 2.003 11.002 2H13.009C13.5394 2 14.0481 2.21071 14.4232 2.58579C14.7983 2.96086 15.009 3.46957 15.009 4V4.572C15.727 4.879 16.38 5.272 16.965 5.75L17.587 5.39C18.0428 5.1261 18.5843 5.05264 19.0939 5.18557C19.6035 5.3185 20.0402 5.64709 20.309 6.1L21.346 7.847C21.4801 8.07281 21.5685 8.32283 21.606 8.58278C21.6436 8.84274 21.6295 9.10754 21.5647 9.36206C21.4999 9.61659 21.3856 9.85586 21.2283 10.0662C21.071 10.2766 20.8738 10.4539 20.648 10.588L20.623 10.603L19.941 10.993C20.024 11.673 20.024 12.348 19.943 13.019L20.613 13.4C20.8413 13.5299 21.0418 13.7035 21.2031 13.9109C21.3643 14.1184 21.4831 14.3555 21.5526 14.6088C21.6222 14.8622 21.6412 15.1267 21.6084 15.3874C21.5757 15.648 21.492 15.8997 21.362 16.128L21.342 16.161L20.302 17.909C20.0354 18.3572 19.6041 18.6836 19.1003 18.8185C18.5965 18.9534 18.0599 18.8861 17.605 18.631L16.954 18.266C16.308 18.779 15.661 19.167 15.009 19.427V20.005C15.009 20.5354 14.7983 21.0441 14.4232 21.4192C14.0481 21.7943 13.5394 22.005 13.009 22.005H13.006L10.994 22.002C10.4644 22.0012 9.9568 21.7904 9.58243 21.4159C9.20806 21.0413 8.99753 20.5336 8.997 20.004C8.997 19.811 8.997 19.61 9 19.403C8.29459 19.1277 7.63481 18.7474 7.043 18.275L6.371 18.644H6.37ZM13.009 20.005V18.701C13.0089 18.4769 13.084 18.2593 13.2224 18.083C13.3608 17.9068 13.5543 17.7821 13.772 17.729C14.516 17.549 15.316 17.083 16.165 16.313C16.3202 16.1723 16.5156 16.0838 16.7237 16.0601C16.9319 16.0365 17.1422 16.0787 17.325 16.181L18.583 16.886L19.623 15.138L18.348 14.412C18.1638 14.307 18.0178 14.1462 17.931 13.9528C17.8442 13.7594 17.8211 13.5434 17.865 13.336C18.0505 12.4583 18.0501 11.5515 17.864 10.674C17.8212 10.4677 17.8447 10.2532 17.9311 10.0611C18.0175 9.86891 18.1623 9.70895 18.345 9.604L19.627 8.868L18.589 7.121L17.337 7.845C17.1466 7.95528 16.9251 7.99967 16.7069 7.97129C16.4886 7.9429 16.2859 7.84333 16.13 7.688C15.465 7.025 14.655 6.532 13.69 6.208C13.4915 6.14119 13.319 6.01376 13.1968 5.84367C13.0746 5.67358 13.0089 5.46943 13.009 5.26V4H11.025C11.03 4.43 11.032 4.85 11.032 5.26C11.032 5.47281 10.9641 5.68007 10.8382 5.85164C10.7123 6.02322 10.535 6.15016 10.332 6.214C9.307 6.536 8.511 7.017 7.927 7.655C7.77419 7.82206 7.56921 7.93231 7.34559 7.96773C7.12198 8.00316 6.89296 7.96165 6.696 7.85L5.402 7.116L4.38 8.864L5.67 9.604C5.86182 9.71356 6.01196 9.88355 6.09699 10.0874C6.18201 10.2913 6.19714 10.5176 6.14 10.731C5.945 11.454 5.945 12.323 6.153 13.343C6.1953 13.5498 6.17106 13.7647 6.08376 13.9569C5.99646 14.1491 5.85058 14.3088 5.667 14.413L4.383 15.143L5.408 16.891L6.708 16.177C6.90094 16.0712 7.12339 16.032 7.34089 16.0654C7.55838 16.0988 7.75877 16.2031 7.911 16.362C8.484 16.96 9.277 17.423 10.308 17.747C10.514 17.8117 10.6935 17.9414 10.8196 18.1166C10.9458 18.2918 11.0119 18.5031 11.008 18.719C11.001 19.179 10.997 19.607 10.998 20.002L13.008 20.005H13.009ZM12.009 8C14.215 8 16.009 9.794 16.009 12C16.009 14.206 14.215 16 12.009 16C9.803 16 8.009 14.206 8.009 12C8.009 9.794 9.803 8 12.009 8ZM12.009 14C13.112 14 14.009 13.103 14.009 12C14.009 10.897 13.112 10 12.009 10C10.906 10 10.009 10.897 10.009 12C10.009 13.103 10.906 14 12.009 14Z" fill="#3A3A47"/>
</svg>

<svg xmlns="http://www.w3.org/2000/svg" width="24" height="24" viewBox="0 0 24 24">
    <path fill="#3A3A47" fill-rule="evenodd" d="M13.009 2a2 2 0 0 1 2 2v.572c.718.307 1.371.7 1.956 1.178l.622-.36a2 2 0 0 1 2.722.71l1.037 1.747a2 2 0 0 1-.698 2.741l-.025.015-.682.39c.083.68.083 1.355.002 2.026l.67.381a2 2 0 0 1 .749 2.728l-.02.033-1.04 1.748a2 2 0 0 1-2.697.722l-.651-.365c-.646.513-1.293.901-1.945 1.161v.578a2 2 0 0 1-2 2h-.003l-2.012-.003a2 2 0 0 1-1.997-1.998c0-.193 0-.394.003-.601a7.519 7.519 0 0 1-1.957-1.128l-.672.369a2 2 0 0 1-2.688-.742l-1.025-1.748a2 2 0 0 1 .714-2.737l.023-.014.677-.384a7.754 7.754 0 0 1-.017-2.036l-.67-.384a2 2 0 0 1-.74-2.73l.009-.014 1.022-1.748a2 2 0 0 1 2.713-.73l.647.366A7.319 7.319 0 0 1 9.03 4.558l-.005-.535A2 2 0 0 1 11.002 2h2.007zm-1.984 2c.005.43.007.85.007 1.26a1 1 0 0 1-.7.954c-1.025.322-1.821.803-2.405 1.441a1 1 0 0 1-1.231.195l-1.294-.734L4.38 8.864l1.29.74a1 1 0 0 1 .47 1.127c-.195.723-.195 1.592.013 2.612a1 1 0 0 1-.486 1.07l-1.284.73 1.025 1.748 1.3-.714a1 1 0 0 1 1.203.185c.573.598 1.366 1.061 2.397 1.385a1 1 0 0 1 .7.972c-.007.46-.011.888-.01 1.283l2.01.003v-1.304a1 1 0 0 1 .764-.972c.744-.18 1.544-.646 2.393-1.416a1 1 0 0 1 1.16-.132l1.258.705 1.04-1.748-1.275-.726a1 1 0 0 1-.483-1.076 6.426 6.426 0 0 0-.001-2.662 1 1 0 0 1 .481-1.07l1.282-.736-1.038-1.747-1.252.724a1 1 0 0 1-1.207-.157c-.665-.663-1.475-1.156-2.44-1.48a1 1 0 0 1-.681-.948V4h-1.984zm.984 4c2.206 0 4 1.794 4 4s-1.794 4-4 4-4-1.794-4-4 1.794-4 4-4zm0 2c-1.103 0-2 .897-2 2s.897 2 2 2 2-.897 2-2-.897-2-2-2z"/>
</svg>
